X: 8060
T: Connie The Soldier
R: jig
M: 6/8
K: Dmixolydian
~A3 BAB|cBc E2D|E2G GFG|~E3 EFG|
~A3 BAB|cBc ~g3|fed cAG|FGE D3:|
~f3 ~e3|fef d2e|~f3 ded|cAG FED|
efg efg|bge d2c|AcB FGE|FDD D3:|

